lib/preview/nrk-logo-preview-nrk-buskerud-with-bg.svg

<svg width="121" height="24" viewBox="0 0 121 24" fill="none" xmlns="http://www.w3.org/2000/svg">
<rect width="121" height="24" fill="#1767CE"/>
<path d="M6 17.9975V5.99859H10V17.9975H6ZM15.2438 7.90828L17.5081 17.9975H13.1992L10.4955 5.99859H12.9122C13.4663 5.9914 14.0041 6.18675 14.4245 6.54789C14.8456 6.89388 15.0849 7.37419 15.2438 7.90828ZM18 17.9975V5.99859H22V17.9975H18ZM25.0105 10.5616C24.5862 10.5657 24.1687 10.4547 23.8025 10.2405C23.4412 10.0316 23.1411 9.73146 22.9323 9.37009C22.7178 9.00383 22.6068 8.58626 22.611 8.16181C22.6061 7.73996 22.7172 7.32488 22.9323 6.96192C23.1433 6.60449 23.4431 6.30759 23.8025 6.10002C24.1689 5.886 24.5862 5.77501 25.0105 5.77888C25.4322 5.77434 25.8471 5.88543 26.2102 6.10002C26.566 6.30941 26.8626 6.60606 27.072 6.96192C27.2868 7.32498 27.3979 7.73999 27.3933 8.16181C27.3973 8.58622 27.2863 9.00372 27.072 9.37009C26.8649 9.72987 26.5679 10.0298 26.2102 10.2405C25.8471 10.4555 25.4324 10.5666 25.0105 10.5616ZM28 17.9975V5.99859H32V17.9975H28ZM36.9737 12.5557C36.9848 12.5674 37.0693 12.7054 37.2272 12.9698C37.3851 13.2342 37.5906 13.5722 37.8439 13.9838C38.0974 14.3952 38.3649 14.8318 38.6463 15.2935C38.9278 15.7552 39.1926 16.1919 39.4408 16.6033C39.6881 17.0147 39.9697 17.4794 40.2857 17.9975H35.9598C35.6893 17.5581 35.4441 17.161 35.2245 16.8061C35.0048 16.4512 34.7713 16.0681 34.5238 15.6569C34.2758 15.246 34.0306 14.846 33.7882 14.457C33.5458 14.0679 33.3375 13.7271 33.1633 13.4346C32.9883 13.1418 32.8671 12.9446 32.7997 12.843C32.6325 12.5909 32.5336 12.2998 32.5127 11.998C32.5294 11.7084 32.6226 11.4285 32.7828 11.1866C32.8503 11.0739 32.9743 10.8739 33.1545 10.5866C33.3348 10.2993 33.546 9.95855 33.7882 9.56422C34.0304 9.16989 34.2756 8.7671 34.5238 8.35587C34.772 7.94464 35.0055 7.55873 35.2245 7.1982C35.4445 6.83805 35.6897 6.43808 35.9598 5.99831H40.2857L36.9396 11.457C36.8361 11.6191 36.7777 11.8058 36.7706 11.998C36.7818 12.1998 36.8528 12.3938 36.9737 12.5557Z" fill="white"/>
<g clip-path="url(#clip0_5919_3013)">
<path d="M51.0941 11.6219V11.5711C51.6922 11.3792 52.138 11.0633 52.4314 10.6231C52.7249 10.183 52.8716 9.66387 52.8716 9.06574C52.8716 8.51276 52.7446 8.00209 52.4907 7.53375C52.2368 7.0654 51.7995 6.69299 51.1788 6.41649C50.5581 6.14 49.6947 6.00175 48.5888 6.00175H45V18.0207H48.7411C49.6778 18.0207 50.5016 17.9022 51.2126 17.6652C51.9236 17.4282 52.4766 17.0502 52.8716 16.531C53.2666 16.0119 53.4641 15.3348 53.4641 14.4997C53.4641 13.7774 53.2553 13.1652 52.8377 12.663C52.4202 12.1608 51.839 11.8137 51.0941 11.6219ZM48.6057 7.45757C49.2715 7.45757 49.7822 7.53939 50.1377 7.70303C50.4932 7.86667 50.7443 8.08673 50.891 8.36323C51.0377 8.63972 51.111 8.95289 51.111 9.30274C51.111 9.65258 51.0518 9.96857 50.9333 10.2169C50.8148 10.4651 50.6512 10.6626 50.4424 10.8093C50.2336 10.956 50.0023 11.0633 49.7483 11.131C49.4944 11.1987 49.232 11.2325 48.9612 11.2325H46.7775V7.45757H48.6057ZM51.3311 15.6931C51.1167 15.9922 50.7894 16.2122 50.3493 16.3533C49.9092 16.4944 49.3562 16.5649 48.6903 16.5649H46.7775V12.6545H49.0458C49.6101 12.6545 50.0841 12.7166 50.4678 12.8407C50.8515 12.9648 51.1449 13.1623 51.348 13.4332C51.5512 13.704 51.6527 14.0765 51.6527 14.5504C51.6527 15.0244 51.5455 15.394 51.3311 15.6931ZM61.251 9.47202L62.9776 9.21809L62.9607 18.0207H61.6234L61.3723 16.9768C61.3215 17.0191 61.2736 17.0671 61.2228 17.1066C60.9463 17.3323 60.6585 17.527 60.3594 17.6906C60.0604 17.8542 59.7472 17.9784 59.4199 18.063C59.0926 18.1477 58.7428 18.19 58.3704 18.19C57.7384 18.19 57.1995 18.0715 56.7537 17.8345C56.308 17.5975 55.9751 17.2307 55.755 16.7342C55.5349 16.2376 55.4249 15.6113 55.4249 14.8552V9.47202L57.1516 9.21809V14.5504C57.1516 15.0019 57.2164 15.3827 57.3462 15.6931C57.476 16.0034 57.6763 16.2348 57.9472 16.3871C58.218 16.5395 58.5622 16.6157 58.9798 16.6157C59.2055 16.6157 59.4227 16.5959 59.6315 16.5564C59.8403 16.5169 60.0463 16.4605 60.2494 16.3871C60.4525 16.3138 60.6585 16.2263 60.8673 16.1248C60.9942 16.0627 61.1212 15.9922 61.2482 15.9132V9.47202H61.251ZM71.3655 14.762C71.4614 15.0047 71.5094 15.2953 71.5094 15.6338C71.5094 16.0853 71.4163 16.4746 71.2301 16.8019C71.0439 17.1292 70.7871 17.3944 70.4599 17.5975C70.1326 17.8006 69.7489 17.9502 69.3088 18.0461C68.8686 18.142 68.4003 18.19 67.9037 18.19C67.6893 18.19 67.4777 18.1843 67.2689 18.1731C67.0601 18.1618 66.8457 18.1336 66.6257 18.0884C66.4056 18.0433 66.1742 17.9897 65.9316 17.9276C65.689 17.8655 65.4209 17.7837 65.1275 17.6821L65.0598 16.2433C65.3194 16.3335 65.5761 16.4154 65.83 16.4887C66.084 16.5621 66.3322 16.6241 66.5749 16.6749C66.8175 16.7257 67.0489 16.7652 67.2689 16.7934C67.489 16.8216 67.6893 16.8357 67.8699 16.8357C68.2084 16.8357 68.5272 16.8019 68.8263 16.7342C69.1254 16.6665 69.368 16.5508 69.5542 16.3871C69.7404 16.2235 69.8335 16.0006 69.8335 15.7185C69.8335 15.5831 69.8081 15.4589 69.7574 15.3461C69.7066 15.2332 69.6332 15.1345 69.5373 15.0498C69.4414 14.9652 69.3257 14.8862 69.1903 14.8128C69.0548 14.7395 68.9081 14.6746 68.7501 14.6182C68.6373 14.5843 68.5216 14.5476 68.4031 14.5081C68.2846 14.4686 68.1633 14.4291 68.0392 14.3896C67.915 14.3501 67.788 14.3106 67.6583 14.2711C67.5285 14.2316 67.3959 14.1893 67.2605 14.1442C67.125 14.099 66.9952 14.0539 66.8711 14.0087C66.6454 13.9185 66.4338 13.8084 66.2363 13.6786C66.0388 13.5489 65.8667 13.3993 65.72 13.2301C65.5733 13.0608 65.4548 12.8548 65.3645 12.6122C65.2742 12.3695 65.2291 12.0902 65.2291 11.7742C65.2291 11.3341 65.3137 10.9532 65.483 10.6316C65.6523 10.31 65.8921 10.0448 66.2025 9.83597C66.5128 9.62719 66.8768 9.46919 67.2943 9.36198C67.7119 9.25477 68.1746 9.20117 68.6824 9.20117C68.8856 9.20117 69.0915 9.20963 69.3003 9.22656C69.5091 9.24349 69.7207 9.27452 69.9351 9.31966C70.1495 9.3648 70.3611 9.42123 70.5699 9.48894C70.7787 9.55666 70.9903 9.63565 71.2047 9.72594L71.0862 11.0971C70.9395 11.0294 70.7759 10.9673 70.5953 10.9109C70.4147 10.8545 70.237 10.8037 70.0621 10.7586C69.8871 10.7134 69.7122 10.6767 69.5373 10.6485C69.3624 10.6203 69.2015 10.6006 69.0548 10.5893C68.9081 10.578 68.7727 10.5723 68.6486 10.5723C68.3664 10.5723 68.1153 10.5949 67.8953 10.6401C67.6752 10.6852 67.4862 10.7529 67.3282 10.8432C67.1702 10.9335 67.0517 11.0435 66.9727 11.1733C66.8937 11.3031 66.8542 11.4582 66.8542 11.6388C66.8542 11.7968 66.8909 11.9379 66.9642 12.062C67.0376 12.1862 67.1335 12.2934 67.252 12.3837C67.3705 12.4739 67.5031 12.5586 67.6498 12.6376C67.7852 12.7053 67.9348 12.7674 68.0984 12.8238C68.262 12.8802 68.4313 12.9338 68.6062 12.9846C68.7812 13.0354 68.9561 13.0918 69.131 13.1539C69.3059 13.2159 69.4837 13.2752 69.6642 13.3316C69.9125 13.4219 70.1495 13.5319 70.3752 13.6617C70.6009 13.7915 70.7984 13.9467 70.9677 14.1272C71.137 14.3078 71.2696 14.5194 71.3655 14.762ZM76.901 13.3937L81.0061 18.0207H78.7716L75.3126 13.8733H75.2844V18.0207H73.5577V5.49391L75.2844 5.23999V12.5699H75.9079L78.8054 9.38738H80.9214L76.901 13.3937ZM88.4883 10.4792C88.161 10.056 87.7463 9.73722 87.2441 9.5228C86.7419 9.30838 86.1691 9.20117 85.5259 9.20117C84.8826 9.20117 84.3071 9.31402 83.7992 9.53973C83.2914 9.76544 82.8597 10.0814 82.5042 10.4877C82.1487 10.894 81.8779 11.3821 81.6917 11.952C81.5055 12.5219 81.4123 13.1567 81.4123 13.8564C81.4123 14.7818 81.5788 15.569 81.9117 16.2179C82.2447 16.8668 82.7384 17.3577 83.3929 17.6906C84.0475 18.0235 84.8488 18.19 85.7967 18.19C86.2481 18.19 86.646 18.1646 86.9902 18.1138C87.3344 18.063 87.6588 17.9869 87.9635 17.8853C88.2682 17.7837 88.5729 17.6539 88.8776 17.4959L88.9961 16.1925C88.7817 16.2715 88.5645 16.3505 88.3444 16.4295C88.1243 16.5085 87.8958 16.579 87.6588 16.6411C87.4218 16.7031 87.1792 16.7483 86.9309 16.7765C86.6826 16.8047 86.4344 16.8188 86.1861 16.8188C85.6782 16.8188 85.2381 16.7709 84.8657 16.6749C84.4933 16.579 84.1801 16.4154 83.9262 16.184C83.6723 15.9527 83.4804 15.6395 83.3506 15.2445C83.2491 14.9313 83.187 14.5589 83.1672 14.1272H89.2839C89.3629 13.3373 89.3319 12.6376 89.1908 12.0282C89.0498 11.4187 88.8156 10.9024 88.4883 10.4792ZM84.2224 10.8855C84.5836 10.6542 85.0237 10.5385 85.5428 10.5385C86.0619 10.5385 86.519 10.6654 86.8463 10.9194C87.1736 11.1733 87.4021 11.526 87.5319 11.9774C87.6165 12.268 87.6532 12.5868 87.656 12.9253H83.2039C83.2462 12.5473 83.3139 12.2115 83.4183 11.9351C83.5933 11.4667 83.8613 11.1169 84.2224 10.8855ZM95.9705 9.23502L95.7674 10.8263C95.553 10.815 95.347 10.8206 95.1495 10.8432C94.952 10.8658 94.763 10.9024 94.5824 10.9532C94.4019 11.004 94.2241 11.0633 94.0492 11.131C93.8743 11.1987 93.6993 11.2805 93.5244 11.3764C93.389 11.4498 93.2564 11.5344 93.1266 11.6247V18.0207H91.3999V9.47202L93.1266 9.21809V10.4792C93.1661 10.4369 93.2056 10.3918 93.2451 10.3523C93.4934 10.104 93.7586 9.8924 94.0407 9.71747C94.3229 9.54255 94.6219 9.41277 94.9379 9.32813C95.2539 9.24349 95.5981 9.21245 95.9705 9.23502ZM103.25 9.47202L104.976 9.21809L104.959 18.0207H103.622L103.371 16.9768C103.32 17.0191 103.272 17.0671 103.221 17.1066C102.945 17.3323 102.657 17.527 102.358 17.6906C102.059 17.8542 101.746 17.9784 101.419 18.063C101.091 18.1477 100.741 18.19 100.369 18.19C99.737 18.19 99.1981 18.0715 98.7524 17.8345C98.3066 17.5975 97.9737 17.2307 97.7536 16.7342C97.5336 16.2376 97.4235 15.6113 97.4235 14.8552V9.47202L99.1502 9.21809V14.5504C99.1502 15.0019 99.2151 15.3827 99.3449 15.6931C99.4746 16.0034 99.675 16.2348 99.9458 16.3871C100.217 16.5395 100.561 16.6157 100.978 16.6157C101.204 16.6157 101.421 16.5959 101.63 16.5564C101.839 16.5169 102.045 16.4605 102.248 16.3871C102.451 16.3138 102.657 16.2263 102.866 16.1248C102.993 16.0627 103.12 15.9922 103.247 15.9132V9.47202H103.25ZM113.542 5.49391V9.61308C113.525 9.60744 113.508 9.59898 113.491 9.59051C113.198 9.47766 112.873 9.38455 112.518 9.3112C112.162 9.23784 111.77 9.20117 111.341 9.20117C110.585 9.20117 109.883 9.38738 109.234 9.75979C108.585 10.1322 108.063 10.6711 107.668 11.3764C107.273 12.0818 107.075 12.9423 107.075 13.958C107.075 14.8269 107.225 15.5774 107.524 16.2094C107.823 16.8414 108.252 17.3295 108.81 17.6737C109.369 18.0179 110.038 18.19 110.816 18.19C111.268 18.19 111.694 18.1336 112.095 18.0207C112.495 17.9079 112.887 17.7329 113.271 17.4959C113.398 17.4169 113.525 17.3295 113.652 17.2392L113.864 18.0207H115.269V5.25692L113.542 5.49391ZM112.636 16.5734C112.19 16.737 111.787 16.8188 111.426 16.8188C110.884 16.8188 110.421 16.7088 110.038 16.4887C109.654 16.2687 109.361 15.9301 109.158 15.473C108.954 15.016 108.853 14.4432 108.853 13.7548C108.853 13.0664 108.966 12.4711 109.191 12.0028C109.417 11.5344 109.742 11.1789 110.165 10.9363C110.588 10.6937 111.093 10.5723 111.68 10.5723C111.962 10.5723 112.233 10.5921 112.492 10.6316C112.752 10.6711 113.014 10.7332 113.28 10.8178C113.361 10.8432 113.454 10.8799 113.542 10.9109V16.1276C113.223 16.3166 112.921 16.469 112.636 16.5734Z" fill="#D4EEFC"/>
</g>
<defs>
<clipPath id="clip0_5919_3013">
<rect width="71" height="14" fill="white" transform="translate(45 5)"/>
</clipPath>
</defs>
</svg>

<svg xmlns="http://www.w3.org/2000/svg" viewBox="0 0 121 24"><path fill="#1767CE" d="M0 0h121v24H0z"/><path fill="#fff" d="M6 17.997V6h4v11.998H6Zm9.244-10.089 2.264 10.09H13.2l-2.704-12h2.417a2.276 2.276 0 0 1 1.512.55c.422.346.66.826.82 1.36ZM18 17.998v-12h4v12h-4Zm7.01-7.436a2.382 2.382 0 0 1-2.4-2.4 2.301 2.301 0 0 1 .322-1.2A2.41 2.41 0 0 1 26.21 6.1c.356.21.653.506.862.862.215.363.326.778.321 1.2a2.35 2.35 0 0 1-.321 1.208 2.4 2.4 0 0 1-.862.87 2.3 2.3 0 0 1-1.2.322ZM28 17.997V6h4v11.998h-4Zm8.974-5.441c.01.011.095.15.253.414s.364.602.617 1.014a315.936 315.936 0 0 1 1.597 2.62c.247.41.529.875.845 1.393H35.96c-.27-.439-.516-.836-.736-1.19-.22-.356-.453-.739-.7-1.15-.248-.411-.493-.811-.736-1.2-.242-.39-.45-.73-.625-1.022-.175-.293-.296-.49-.363-.592a1.747 1.747 0 0 1-.287-.845c.016-.29.11-.57.27-.811.067-.113.191-.313.371-.6a182.106 182.106 0 0 0 1.37-2.23l.7-1.159.736-1.2h4.326l-3.346 5.459a1.08 1.08 0 0 0-.17.541c.012.202.083.396.204.558Z"/><g clip-path="url(#a)"><path fill="#D4EEFC" d="M51.094 11.622v-.05c.598-.193 1.044-.509 1.337-.949.294-.44.44-.96.44-1.557 0-.553-.126-1.064-.38-1.532-.254-.469-.691-.841-1.312-1.118-.62-.276-1.484-.414-2.59-.414H45V18.02h3.741c.937 0 1.76-.119 2.472-.356.71-.237 1.264-.615 1.659-1.134.395-.52.592-1.196.592-2.031 0-.723-.209-1.335-.626-1.837-.418-.502-.999-.85-1.744-1.041Zm-2.488-4.164c.666 0 1.176.081 1.532.245.355.164.606.384.753.66.147.277.22.59.22.94s-.06.666-.178.914a1.494 1.494 0 0 1-.49.592c-.21.147-.44.254-.695.322a3.042 3.042 0 0 1-.787.101h-2.183V7.458h1.828Zm2.725 8.235c-.214.3-.542.52-.982.66-.44.141-.993.212-1.659.212h-1.912v-3.91h2.268c.564 0 1.038.062 1.422.186.383.124.677.321.88.592.203.271.305.643.305 1.117s-.108.844-.322 1.143Zm9.92-6.221 1.727-.254-.017 8.803h-1.338l-.25-1.044c-.051.042-.1.09-.15.13-.277.225-.565.42-.864.584a4.075 4.075 0 0 1-.94.372 4.176 4.176 0 0 1-1.049.127c-.632 0-1.17-.119-1.616-.356-.446-.236-.779-.603-.999-1.1-.22-.496-.33-1.123-.33-1.879V9.472l1.727-.254v5.332c0 .452.064.833.194 1.143.13.31.33.542.601.694.271.152.615.229 1.033.229a3.5 3.5 0 0 0 .652-.06c.208-.04.414-.096.617-.169.203-.073.41-.16.618-.262a4.3 4.3 0 0 0 .381-.212V9.472h.003Zm10.114 5.29c.096.243.144.533.144.872 0 .451-.093.84-.279 1.168a2.213 2.213 0 0 1-.77.796 3.633 3.633 0 0 1-1.151.448 6.59 6.59 0 0 1-1.405.144c-.215 0-.426-.006-.635-.017a4.369 4.369 0 0 1-.643-.085c-.22-.045-.452-.098-.694-.16-.243-.063-.511-.144-.805-.246l-.067-1.439c.26.09.516.172.77.246.254.073.502.135.745.186.242.05.474.09.694.118a4.324 4.324 0 0 0 1.557-.06c.3-.066.542-.182.728-.346.186-.163.28-.386.28-.668a.866.866 0 0 0-.296-.669 1.869 1.869 0 0 0-.348-.237 3.148 3.148 0 0 0-.44-.195c-.113-.034-.228-.07-.347-.11a28.154 28.154 0 0 0-.745-.237 15.994 15.994 0 0 1-.787-.262c-.226-.09-.437-.2-.635-.33a2.48 2.48 0 0 1-.516-.449 1.996 1.996 0 0 1-.355-.618 2.395 2.395 0 0 1-.136-.838c0-.44.085-.82.254-1.142.17-.322.41-.587.72-.796.31-.209.674-.367 1.091-.474.418-.107.88-.16 1.388-.16.204 0 .41.008.618.025.21.016.42.048.635.093.215.045.426.101.635.169.209.068.42.147.635.237l-.119 1.371a4.066 4.066 0 0 0-.49-.186c-.181-.056-.359-.107-.534-.152a5.77 5.77 0 0 0-1.007-.17 5.318 5.318 0 0 0-.406-.017c-.283 0-.534.023-.754.068-.22.045-.409.113-.567.203a.962.962 0 0 0-.355.33.878.878 0 0 0-.119.466c0 .158.037.299.11.423.074.124.17.231.288.322.119.09.251.175.398.254a3.7 3.7 0 0 0 .448.186c.164.056.333.11.508.16.175.051.35.108.525.17.175.062.353.121.533.178.248.09.486.2.711.33.226.13.423.285.593.465.169.18.302.392.397.635Zm5.536-1.368 4.105 4.627h-2.234l-3.46-4.148h-.028v4.148h-1.726V5.494l1.726-.254v7.33h.624l2.897-3.183h2.116l-4.02 4.007Zm11.587-2.915a3.068 3.068 0 0 0-1.244-.956c-.502-.215-1.075-.322-1.718-.322s-1.219.113-1.727.339c-.508.225-.94.541-1.295.948a4.15 4.15 0 0 0-.812 1.464 6.11 6.11 0 0 0-.28 1.904c0 .926.167 1.713.5 2.362a3.31 3.31 0 0 0 1.48 1.473c.656.332 1.457.499 2.405.499.451 0 .849-.025 1.193-.076.344-.051.669-.127.974-.229a6.35 6.35 0 0 0 .914-.39l.118-1.303c-.214.08-.431.159-.652.238-.22.079-.448.149-.685.211-.237.062-.48.107-.728.136a6.594 6.594 0 0 1-.745.042c-.508 0-.948-.048-1.32-.144a2.172 2.172 0 0 1-.94-.491c-.254-.231-.446-.545-.575-.94a4.28 4.28 0 0 1-.184-1.117h6.117c.079-.79.048-1.49-.093-2.099-.141-.61-.375-1.126-.703-1.549Zm-4.266.407c.362-.232.802-.347 1.32-.347.52 0 .977.126 1.304.38.328.254.556.607.686 1.058.085.291.121.61.124.948h-4.452c.042-.378.11-.714.214-.99.175-.468.443-.818.804-1.05Zm11.749-1.651-.204 1.591a3.713 3.713 0 0 0-1.185.127c-.18.051-.358.11-.533.178a4.383 4.383 0 0 0-.922.494v6.396H91.4V9.472l1.727-.254v1.261c.04-.042.079-.087.118-.127.248-.248.514-.46.796-.635a3.33 3.33 0 0 1 .897-.389c.316-.085.66-.116 1.032-.093Zm7.279.237 1.726-.254-.017 8.803h-1.337l-.251-1.044c-.051.042-.099.09-.15.13-.276.225-.564.42-.863.584a4.077 4.077 0 0 1-.939.372 4.187 4.187 0 0 1-1.05.127c-.632 0-1.17-.119-1.617-.356-.445-.236-.778-.603-.998-1.1-.22-.496-.33-1.123-.33-1.879V9.472l1.726-.254v5.332c0 .452.065.833.195 1.143.13.31.33.542.6.694.272.152.616.229 1.033.229.226 0 .443-.02.652-.06.209-.04.415-.096.618-.169.203-.073.409-.16.618-.262.127-.062.254-.133.381-.212V9.472h.003Zm10.292-3.978v4.12a.401.401 0 0 1-.051-.023 5.84 5.84 0 0 0-2.15-.39c-.756 0-1.458.186-2.107.559-.649.372-1.171.911-1.566 1.616-.395.706-.593 1.566-.593 2.582 0 .869.15 1.62.449 2.251.299.632.728 1.12 1.286 1.465.559.344 1.228.516 2.006.516.452 0 .878-.056 1.279-.17a4.63 4.63 0 0 0 1.176-.524c.127-.08.254-.166.381-.257l.212.782h1.405V5.257l-1.727.237Zm-.906 11.08c-.446.163-.849.245-1.21.245-.542 0-1.005-.11-1.388-.33-.384-.22-.677-.559-.88-1.016-.204-.457-.305-1.03-.305-1.718 0-.689.113-1.284.338-1.752a2.39 2.39 0 0 1 .974-1.067c.423-.242.928-.364 1.515-.364a5.147 5.147 0 0 1 1.6.245c.081.026.174.063.262.094v5.217a5.578 5.578 0 0 1-.906.445Z"/></g><defs><clipPath id="a"><path fill="#fff" d="M45 5h71v14H45z"/></clipPath></defs></svg>
